**kern
*clefC2
*k[f#]
*M4/4
=1-
8e
16e
16f
4g
8g
16g
4f#
16f
=2
2e-
8f
4e
16e
16f
=3
2r
2f
=4
(16g
2g#)
4g
(16f
16e)
16e
=5
4d
16c
16c
16d#
2e
16f
=6
2.f
8g
8g
=7
2g
16g
8a
(4g
16f)
=8
8.f
2e
16d
16d
16c
16B
16B
=9
(4A
8A)
2B
8r
=10
2c
2d
=11
*-